icons/src/svg/message_inactive.svg

<svg width="32" height="32" viewBox="0 0 32 32" fill="none" xmlns="http://www.w3.org/2000/svg">
<path d="M27.0918 22.8492C28.7704 22.3741 30.0001 20.8307 30.0001 19V8C30.0001 5.79267 28.2152 4 26.0043 4H8.24268L10.2426 6H26.0043C27.1071 6 28.0001 6.89362 28.0001 8V19C28.0001 20.1046 27.1047 21 26.0001 21H25.2426L27.0918 22.8492Z" fill="#0D0F13"/>
<path d="M4.05981 8.30312L4 22.0007L4.00009 25.1965L10.4701 21.1527C10.6291 21.0534 10.8127 21.0007 11.0001 21.0007H16.7574L18.7574 23.0007H11.2869L3.53014 27.8487C3.22188 28.0414 2.83334 28.0516 2.51539 27.8753C2.19744 27.6991 2.00016 27.3642 2.00014 27.0007L2 22.0007L2.00001 21.9963L2.06119 7.98321C2.06336 7.48477 2.15657 7.00789 2.32505 6.56836L4.05981 8.30312Z" fill="#0D0F13"/>
<path fill-rule="evenodd" clip-rule="evenodd" d="M2.29289 2.29289C2.68342 1.90237 3.31658 1.90237 3.70711 2.29289L29.7071 28.2929C30.0976 28.6834 30.0976 29.3166 29.7071 29.7071C29.3166 30.0976 28.6834 30.0976 28.2929 29.7071L2.29289 3.70711C1.90237 3.31658 1.90237 2.68342 2.29289 2.29289Z" fill="#0D0F13"/>
</svg>

<?xml version="1.0" encoding="utf-8"?>
<!-- Generator: Adobe Illustrator 26.0.1, SVG Export Plug-In . SVG Version: 6.00 Build 0)  -->
<svg version="1.1" id="Layer_1" xmlns="http://www.w3.org/2000/svg" xmlns:xlink="http://www.w3.org/1999/xlink" x="0px" y="0px"
	 viewBox="0 0 32 32" style="enable-background:new 0 0 32 32;" xml:space="preserve">
<style type="text/css">
	.st0{fill:#0D0F13;}
</style>
<path class="st0" d="M27.1,22.8c1.7-0.5,2.9-2,2.9-3.8V8c0-2.2-1.8-4-4-4H8.2l2,2H26c1.1,0,2,0.9,2,2v11c0,1.1-0.9,2-2,2h-0.8
	L27.1,22.8z M4.1,8.3L4,22l0,3.2l6.5-4c0.2-0.1,0.3-0.2,0.5-0.2h5.8l2,2h-7.5l-7.8,4.8c-0.3,0.2-0.7,0.2-1,0C2.2,27.7,2,27.4,2,27
	l0-5l0,0L2.1,8c0-0.5,0.1-1,0.3-1.4L4.1,8.3z M2.3,2.3c0.4-0.4,1-0.4,1.4,0l26,26c0.4,0.4,0.4,1,0,1.4c-0.4,0.4-1,0.4-1.4,0l-26-26
	C1.9,3.3,1.9,2.7,2.3,2.3z"/>
</svg>
